packages/core/src/svgs/o3.svg

<svg width="24" height="24" viewBox="0 0 24 24" fill="none" xmlns="http://www.w3.org/2000/svg">
<g clip-path="url(#clip0_31_15052)">
<path d="M0 0H24V24H0V0Z" fill="url(#paint0_linear_31_15052)"/>
<path fill-rule="evenodd" clip-rule="evenodd" d="M8.57146 16.7144H16.7143C17.2032 16.7144 17.6819 16.5751 18.0944 16.3128C18.5069 16.0505 18.836 15.676 19.0433 15.2333C19.2506 14.7905 19.3273 14.2979 19.2646 13.8131C19.2019 13.3283 19.0023 12.8714 18.6892 12.496C18.8953 12.2639 19.0535 11.9934 19.1548 11.7001C19.2561 11.4067 19.2984 11.0962 19.2794 10.7864C19.2604 10.4767 19.1804 10.1737 19.044 9.89489C18.9076 9.6161 18.7175 9.367 18.4846 9.16187C18.2517 8.95675 17.9805 8.79964 17.6867 8.69956C17.3929 8.59949 17.0823 8.55842 16.7726 8.57871C16.4629 8.59901 16.1602 8.68026 15.882 8.81782C15.6038 8.95537 15.3555 9.14652 15.1513 9.38028C15.1492 9.38476 15.1468 9.38906 15.144 9.39314C14.9469 9.676 14.8007 10.2546 15.1882 10.5991C15.5696 10.9386 16.1302 10.8019 16.4289 10.5241C16.4976 10.4393 16.5868 10.3734 16.688 10.3326C16.7892 10.2918 16.8992 10.2775 17.0075 10.2909C17.1158 10.3043 17.2189 10.3451 17.3071 10.4094C17.3953 10.4738 17.4657 10.5595 17.5116 10.6585C17.5575 10.7575 17.5774 10.8666 17.5695 10.9754C17.5616 11.0843 17.5261 11.1894 17.4664 11.2807C17.4066 11.3721 17.3246 11.4467 17.2281 11.4976C17.1315 11.5485 17.0236 11.5739 16.9145 11.5716L16.9157 11.5754C16.428 11.5754 15.855 11.911 15.855 12.6434C15.855 13.3763 16.4387 13.675 16.9157 13.7071L16.9153 13.7089H16.9256C17.0969 13.7089 17.2612 13.7769 17.3823 13.898C17.5034 14.0191 17.5715 14.1834 17.5715 14.3547C17.5715 14.526 17.5034 14.6903 17.3823 14.8114C17.2612 14.9325 17.0969 15.0006 16.9256 15.0006C16.8463 15.0006 16.7747 14.9993 16.7096 14.9971L16.7087 15.0006H9.10804L9.10932 14.9989C8.35374 15.0227 7.61146 14.7962 6.99793 14.3546C6.3844 13.9129 5.93404 13.2809 5.7169 12.5568C5.49976 11.8327 5.52801 11.0572 5.79728 10.3508C6.06654 9.64441 6.5617 9.04683 7.20574 8.651C7.84978 8.25517 8.60658 8.0833 9.35842 8.16211C10.1103 8.24092 10.815 8.56599 11.3629 9.08677C11.9109 9.60755 12.2714 10.2948 12.3883 11.0417C12.5052 11.7885 12.372 12.5531 12.0095 13.2164C11.9978 13.2394 11.9857 13.2621 11.973 13.2846C11.685 13.7984 11.7039 14.1537 12.0617 14.4417C12.6875 14.7546 13.2763 14.4169 13.4083 14.2219C13.8904 13.422 14.1444 12.5055 14.1429 11.5716C14.1429 8.73143 11.8402 6.42871 9.00003 6.42871C6.15989 6.42871 3.85718 8.73143 3.85718 11.5716C3.85718 14.2673 5.93146 16.4787 8.57146 16.6969V16.7144Z" fill="white"/>
</g>
<defs>
<linearGradient id="paint0_linear_31_15052" x1="12" y1="2.34757e-07" x2="8.06143" y2="22.6517" gradientUnits="userSpaceOnUse">
<stop stop-color="#42B06B"/>
<stop offset="1" stop-color="#06AF8F"/>
</linearGradient>
<clipPath id="clip0_31_15052">
<rect width="24" height="24" fill="white"/>
</clipPath>
</defs>
</svg>

<svg xmlns="http://www.w3.org/2000/svg" width="24" height="24" fill="none" viewBox="0 0 24 24"><g clip-path="url(#a)"><path fill="url(#b)" d="M0 0h24v24H0z"/><path fill="#fff" fill-rule="evenodd" d="M8.571 16.714h8.143a2.572 2.572 0 0 0 1.975-4.218 2.358 2.358 0 1 0-3.538-3.116l-.007.013c-.197.283-.343.862.044 1.206.382.34.942.203 1.24-.075a.643.643 0 1 1 .486 1.048l.002.003c-.488 0-1.061.336-1.061 1.068 0 .733.584 1.032 1.06 1.064v.002h.01a.646.646 0 1 1 0 1.292q-.118 0-.215-.004l-.001.004H9.108l.001-.002a3.43 3.43 0 1 1 2.864-1.714c-.288.513-.27.869.089 1.157.626.313 1.214-.025 1.346-.22a5.143 5.143 0 1 0-4.837 2.475z" clip-rule="evenodd"/></g><defs><linearGradient id="b" x1="12" x2="8.061" y1="0" y2="22.652" gradientUnits="userSpaceOnUse"><stop stop-color="#42B06B"/><stop offset="1" stop-color="#06AF8F"/></linearGradient><clipPath id="a"><path fill="#fff" d="M0 0h24v24H0z"/></clipPath></defs></svg>
